src/Pure/16/symbolic/apps/org.gnome.Settings-file-history-symbolic.svg

<svg width="16px" height="16px" version="1.1" viewBox="0 0 16 16" xmlns="http://www.w3.org/2000/svg">
 <path d="m4 0c-1.662 0-3 1.338-3 3v9c0 1.662 1.338 3 3 3h8c1.662 0 3-1.338 3-3v-9c0-1.662-1.338-3-3-3h-8zm0 1h8c1.108 0 2 0.892 2 2v4h-12v-4c0-1.108 0.892-2 2-2zm2 3v1h4v-1h-4zm-4 4h12v4c0 1.108-0.892 2-2 2h-8c-1.108 0-2-0.892-2-2v-4zm4 2v1h4v-1h-4z" fill="#363636"/>
</svg>

<?xml version="1.0" encoding="UTF-8" standalone="no"?>
<svg
   width="16px"
   height="16px"
   version="1.1"
   viewBox="0 0 16 16"
   id="svg1"
   sodipodi:docname="org.gnome.Settings-file-history-symbolic.svg"
   inkscape:version="1.4.2 (ebf0e940d0, 2025-05-08)"
   xmlns:inkscape="http://www.inkscape.org/namespaces/inkscape"
   xmlns:sodipodi="http://sodipodi.sourceforge.net/DTD/sodipodi-0.dtd"
   xmlns="http://www.w3.org/2000/svg"
   xmlns:svg="http://www.w3.org/2000/svg">
  <defs
     id="defs1">
     <style
        id="current-color-scheme"
        type="text/css">
        .ColorScheme-Text { color:#363636; }
     </style>
  </defs>
  <sodipodi:namedview
     id="namedview1"
     pagecolor="#ffffff"
     bordercolor="#000000"
     borderopacity="0.25"
     inkscape:showpageshadow="2"
     inkscape:pageopacity="0.0"
     inkscape:pagecheckerboard="0"
     inkscape:deskcolor="#d1d1d1"
     inkscape:zoom="49.75"
     inkscape:cx="7.9899497"
     inkscape:cy="8"
     inkscape:window-width="1920"
     inkscape:window-height="1011"
     inkscape:window-x="0"
     inkscape:window-y="0"
     inkscape:window-maximized="1"
     inkscape:current-layer="svg1" />
  <path
     id="path1"
     style="fill:currentColor"
     class="ColorScheme-Text"
     d="M 4 0 C 2.338 0 1 1.338 1 3 L 1 12 C 1 13.662 2.338 15 4 15 L 12 15 C 13.662 15 15 13.662 15 12 L 15 3 C 15 1.338 13.662 0 12 0 L 4 0 z M 4 1 L 12 1 C 13.108 1 14 1.892 14 3 L 14 7 L 2 7 L 2 3 C 2 1.892 2.892 1 4 1 z M 6 4 L 6 5 L 10 5 L 10 4 L 6 4 z M 2 8 L 14 8 L 14 12 C 14 13.108 13.108 14 12 14 L 4 14 C 2.892 14 2 13.108 2 12 L 2 8 z M 6 10 L 6 11 L 10 11 L 10 10 L 6 10 z " />
</svg>
